X: 14
T: Horse Shoe Bend
B: canberra pickers and fiddlers
B: tunes
M:4/4
L:1/8
R: reel
Q: 1/4=200
K:C
V:1 
g2-gg gagg |+slide+gfed c2cc|aaab a2 gg|gfed c2c2|
+slide+[e2e2][e2e2]+slide+[e2e2][ee]g|gage dcA[de]-|[ee]e2[de]- [e2e2]eg|gage dcA[de]-|
[ee]e2 ([de]c2)cc|GGA2 {GF}ED C2|[GB]-[Gc][Gc][Gc] G2(3GAB|[Gc][Gc][Gc][Gc]  AGEF|
GG[GB][GB] A-B[GB][GB]|[Gc][Gc]AG EDCD|[Gc][Gc][Gc][Gc] GGAB|
[G2c2][Gc][Gc] [GA][GA]EF|GG[GB][GB] A-B[GB][GB]|[Gc][Gc]AG EDCe||
% abcbook-tune_id 63ae8f1c9d1461f48eb1fa1b
% abcbook-tune_composer_id 
% abcbook-link-0 https://www.youtube.com/watch?v=AWdvrk1Goc0
% abcbook-boost 0
% abcbook-difficulty 0
% abcbook-tags canberra pickers and fiddlers,old time tunes,© free
% abcbook-tablature 
% abcbook-transpose 
% abcbook-tuning GDAE
% abcbook-lastupdated 1739068263102
% abcbook-src-url https://tunebook.net/scrape/tunes.abc
% abcbook-soundfonts 
% abcbook-repeats 1


